libs/ui/packages/crypto-icons/src/svg/POE.svg

<svg width="24" height="24" viewBox="0 0 24 24" fill="none">
<path d="M18.5685 5.79901C17.9657 5.20507 17.1528 4.87302 16.3065 4.87501C15.4478 4.87501 14.6483 5.20501 14.0445 5.79901L6.6525 13.0785C6.61522 13.1159 6.58626 13.1608 6.56752 13.2101C6.54878 13.2595 6.54068 13.3123 6.54375 13.365V17.112L4.5 19.125H5.62725L7.14075 17.6348H10.9238C10.9769 17.6353 11.0295 17.6248 11.0783 17.6039C11.1271 17.5829 11.171 17.5521 11.2073 17.5133L18.5618 10.2698L18.5693 10.2623C18.8635 9.97234 19.0973 9.62689 19.2571 9.24593C19.4169 8.86498 19.4994 8.45611 19.5 8.04301C19.502 7.626 19.4207 7.2128 19.2607 6.82769C19.1007 6.44258 18.8654 6.09334 18.5685 5.80051V5.79901ZM14.2695 6.64501L14.5823 6.33751C15.0416 5.8848 15.6616 5.63241 16.3065 5.63551C16.9538 5.63551 17.565 5.88601 18.0308 6.33751C18.0383 6.34501 18.0458 6.35851 18.06 6.36601C18.5033 6.81751 18.7433 7.40476 18.7433 8.03551C18.7433 8.67301 18.4883 9.27451 18.0308 9.73351L17.7105 10.0485H14.8515L16.7288 8.19976C16.8005 8.12969 16.8421 8.03441 16.8448 7.93415C16.8475 7.83389 16.8109 7.73653 16.743 7.66276C16.7355 7.65526 16.7355 7.64776 16.728 7.64101C16.6527 7.56886 16.5525 7.52858 16.4483 7.52858C16.344 7.52858 16.2438 7.56886 16.1685 7.64101L14.277 9.50401V6.64426L14.2695 6.64501ZM7.9125 16.8758L9.4545 15.3563H12.3135L10.7715 16.8758H7.9125ZM12.4005 12.4478L14.2268 10.6493H17.0858L15.2595 12.4478H12.4005ZM14.634 13.0643L12.9315 14.7405H10.0725L11.775 13.0643H14.634ZM11.8193 9.05926L13.6523 7.25326V10.1048L11.8193 11.9175V9.05926ZM9.49125 11.3513L11.1938 9.67501V12.5265L9.49125 14.2028V11.3513ZM7.30875 13.5008L8.8725 11.9678V14.8193L7.30875 16.3523V13.5008Z" fill="white"/>
<path d="M18.5685 5.79901C17.9657 5.20507 17.1528 4.87302 16.3065 4.87501C15.4478 4.87501 14.6483 5.20501 14.0445 5.79901L6.6525 13.0785C6.61522 13.1159 6.58626 13.1608 6.56752 13.2101C6.54878 13.2595 6.54068 13.3123 6.54375 13.365V17.112L4.5 19.125H5.62725L7.14075 17.6348H10.9238C10.9769 17.6353 11.0295 17.6248 11.0783 17.6039C11.1271 17.5829 11.171 17.5521 11.2073 17.5133L18.5618 10.2698L18.5693 10.2623C18.8635 9.97234 19.0973 9.62689 19.2571 9.24593C19.4169 8.86498 19.4994 8.45611 19.5 8.04301C19.502 7.626 19.4207 7.2128 19.2607 6.82769C19.1007 6.44258 18.8654 6.09334 18.5685 5.80051V5.79901ZM14.2695 6.64501L14.5823 6.33751C15.0416 5.8848 15.6616 5.63241 16.3065 5.63551C16.9538 5.63551 17.565 5.88601 18.0308 6.33751C18.0383 6.34501 18.0458 6.35851 18.06 6.36601C18.5033 6.81751 18.7433 7.40476 18.7433 8.03551C18.7433 8.67301 18.4883 9.27451 18.0308 9.73351L17.7105 10.0485H14.8515L16.7288 8.19976C16.8005 8.12969 16.8421 8.03441 16.8448 7.93415C16.8475 7.83389 16.8109 7.73653 16.743 7.66276C16.7355 7.65526 16.7355 7.64776 16.728 7.64101C16.6527 7.56886 16.5525 7.52858 16.4483 7.52858C16.344 7.52858 16.2438 7.56886 16.1685 7.64101L14.277 9.50401V6.64426L14.2695 6.64501ZM7.9125 16.8758L9.4545 15.3563H12.3135L10.7715 16.8758H7.9125ZM12.4005 12.4478L14.2268 10.6493H17.0858L15.2595 12.4478H12.4005ZM14.634 13.0643L12.9315 14.7405H10.0725L11.775 13.0643H14.634ZM11.8193 9.05926L13.6523 7.25326V10.1048L11.8193 11.9175V9.05926ZM9.49125 11.3513L11.1938 9.67501V12.5265L9.49125 14.2028V11.3513ZM7.30875 13.5008L8.8725 11.9678V14.8193L7.30875 16.3523V13.5008Z" fill="#DCD6CC"/>
</svg>

<svg width="24" height="24" viewBox="0 0 24 24" fill="none"><path fill="#fff" d="M18.569 5.799a3.2 3.2 0 0 0-2.262-.924 3.2 3.2 0 0 0-2.262.924l-7.392 7.28a.38.38 0 0 0-.11.286v3.747L4.5 19.125h1.127l1.514-1.49h3.783a.38.38 0 0 0 .283-.122l7.355-7.243.007-.008a3.12 3.12 0 0 0 .931-2.219 3.13 3.13 0 0 0-.931-2.242zm-4.3.846.313-.307a2.44 2.44 0 0 1 1.724-.702c.648 0 1.259.25 1.725.702.007.007.015.02.029.028a2.36 2.36 0 0 1 .683 1.67c0 .637-.255 1.239-.712 1.698l-.32.315h-2.86l1.878-1.85a.386.386 0 0 0 .014-.536c-.008-.008-.008-.015-.015-.022a.404.404 0 0 0-.56 0l-1.891 1.863v-2.86zm-6.357 10.23 1.542-1.519h2.86l-1.543 1.52zm4.488-4.427 1.827-1.799h2.859l-1.826 1.799zm2.234.616-1.703 1.677h-2.858l1.702-1.677zM11.819 9.06l1.833-1.806v2.852l-1.833 1.813zm-2.328 2.292 1.703-1.676v2.851L9.49 14.204zm-2.182 2.15 1.564-1.533v2.851l-1.564 1.533z"/><path fill="#dcd6cc" d="M18.569 5.799a3.2 3.2 0 0 0-2.262-.924 3.2 3.2 0 0 0-2.262.924l-7.392 7.28a.38.38 0 0 0-.11.286v3.747L4.5 19.125h1.127l1.514-1.49h3.783a.38.38 0 0 0 .283-.122l7.355-7.243.007-.008a3.12 3.12 0 0 0 .931-2.219 3.13 3.13 0 0 0-.931-2.242zm-4.3.846.313-.307a2.44 2.44 0 0 1 1.724-.702c.648 0 1.259.25 1.725.702.007.007.015.02.029.028a2.36 2.36 0 0 1 .683 1.67c0 .637-.255 1.239-.712 1.698l-.32.315h-2.86l1.878-1.85a.386.386 0 0 0 .014-.536c-.008-.008-.008-.015-.015-.022a.404.404 0 0 0-.56 0l-1.891 1.863v-2.86zm-6.357 10.23 1.542-1.519h2.86l-1.543 1.52zm4.488-4.427 1.827-1.799h2.859l-1.826 1.799zm2.234.616-1.703 1.677h-2.858l1.702-1.677zM11.819 9.06l1.833-1.806v2.852l-1.833 1.813zm-2.328 2.292 1.703-1.676v2.851L9.49 14.204zm-2.182 2.15 1.564-1.533v2.851l-1.564 1.533z"/></svg>
